app/img/svg/unique/img1.svg

<svg width="82" height="116" viewBox="0 0 82 116" fill="none" xmlns="http://www.w3.org/2000/svg">
	<path d="M54.9941 1.04047L26.6543 1.04047C12.5552 1.04047 1.14838 26.4047 1.14838 57.7202C1.14838 89.0358 12.5552 114.4 26.6543 114.4L54.9941 114.4" fill="none" />
	<path d="M54.9941 1.04047L26.6543 1.04047C12.5552 1.04047 1.14838 26.4047 1.14838 57.7202C1.14838 89.0358 12.5552 114.4 26.6543 114.4L54.9941 114.4" stroke="#F5F7FA" stroke-width="2" stroke-linecap="round" stroke-linejoin="round" />
	<path d="M29.4882 57.7206C29.4882 89.0239 40.9076 114.4 54.9941 114.4C69.0806 114.4 80.5 89.0239 80.5 57.7206C80.5 26.4172 69.0806 1.04083 54.9941 1.04083C40.9076 1.04083 29.4882 26.4172 29.4882 57.7206Z" fill="none" stroke="#F5F7FA" stroke-width="2" stroke-linecap="round" stroke-linejoin="round" />
	<path d="M31.6133 35.0494L3.2734 35.0494" stroke="#F5F7FA" stroke-width="2" stroke-linecap="round" stroke-linejoin="round" />
	<path d="M31.6133 80.3934L3.49672 80.3934" stroke="#F5F7FA" stroke-width="2" stroke-linecap="round" stroke-linejoin="round" />
	<path d="M58.7584 88.6091L58.167 81.8886C55.9368 83.3661 53.7909 84.399 51.729 84.9873C49.6968 85.5119 47.843 85.4615 46.1676 84.8361L47.1898 80.8412C48.9281 81.3797 50.6954 81.4479 52.4918 81.0457C54.2846 80.6032 56.3921 79.533 58.8142 77.8352C61.8003 75.7419 63.976 73.4455 65.3412 70.9458C66.7028 68.4057 67.2788 65.9449 67.0692 63.5635C66.8987 61.6261 66.2163 60.476 65.0219 60.1134C63.8607 59.7274 62.0056 60.0636 59.4568 61.1218L54.4728 63.3298C51.4192 64.6562 49.0842 64.943 47.468 64.1904C45.8815 63.3741 44.9549 61.4524 44.6885 58.4251C44.4896 56.1648 44.7599 53.8326 45.4994 51.4287C46.2389 49.0247 47.3588 46.7398 48.8591 44.574C50.389 42.3445 52.2251 40.3931 54.3676 38.7199L53.7761 31.9994L56.4637 30.1155L57.0605 36.8965C58.7337 35.8951 60.4536 35.2251 62.2204 34.8865C64.0203 34.5247 65.6069 34.741 66.9802 35.5354L66.0522 39.3999C64.5391 38.6179 62.9359 38.4132 61.2426 38.786C59.5457 39.1184 57.7019 39.9823 55.7112 41.3778C53.0568 43.2384 50.9878 45.5459 49.5041 48.3001C48.0536 51.031 47.4438 53.7083 47.6747 56.3319C47.8558 58.3904 48.5158 59.6848 49.6545 60.2151C50.7896 60.705 52.4936 60.4533 54.7663 59.4601L59.7058 57.3475C63.0285 55.8754 65.5441 55.4405 67.2528 56.0426C68.9578 56.6044 69.9365 58.3182 70.1887 61.184C70.48 64.4938 69.7523 67.8322 68.0055 71.1994C66.2587 74.5665 63.8733 77.4814 60.8492 79.9441L61.446 86.7252L58.7584 88.6091Z" fill="#F5F7FA" />
</svg>

<svg width="82" height="116" fill="none" xmlns="http://www.w3.org/2000/svg"><path d="M54.994 1.04h-28.34c-14.099 0-25.506 25.365-25.506 56.68 0 31.316 11.407 56.68 25.506 56.68h28.34"/><path d="M54.994 1.04h-28.34c-14.099 0-25.506 25.365-25.506 56.68 0 31.316 11.407 56.68 25.506 56.68h28.34" stroke="#F5F7FA" stroke-width="2" stroke-linecap="round" stroke-linejoin="round"/><path d="M29.488 57.72c0 31.304 11.42 56.68 25.506 56.68 14.087 0 25.506-25.376 25.506-56.68 0-31.303-11.42-56.68-25.506-56.68S29.488 26.418 29.488 57.72zm2.125-22.67H3.273m28.34 45.343H3.497" stroke="#F5F7FA" stroke-width="2" stroke-linecap="round" stroke-linejoin="round"/><path d="M58.758 88.61l-.591-6.721c-2.23 1.477-4.376 2.51-6.438 3.098-2.032.525-3.886.475-5.561-.15l1.022-3.996c1.738.539 3.505.607 5.302.205 1.793-.443 3.9-1.513 6.322-3.21 2.986-2.094 5.162-4.39 6.527-6.89 1.362-2.54 1.938-5.001 1.728-7.383-.17-1.937-.853-3.087-2.047-3.45-1.161-.386-3.016-.05-5.565 1.009l-4.984 2.208c-3.054 1.326-5.389 1.613-7.005.86-1.587-.816-2.513-2.738-2.78-5.765-.198-2.26.072-4.592.811-6.996.74-2.404 1.86-4.69 3.36-6.855a26.187 26.187 0 015.509-5.854L53.776 32l2.688-1.884.596 6.78c1.674-1 3.394-1.67 5.16-2.01 1.8-.361 3.387-.145 4.76.65l-.928 3.864c-1.513-.782-3.116-.987-4.81-.614-1.696.332-3.54 1.196-5.53 2.592-2.655 1.86-4.724 4.168-6.208 6.922-1.45 2.731-2.06 5.408-1.83 8.032.182 2.058.842 3.353 1.98 3.883 1.136.49 2.84.238 5.112-.755l4.94-2.113c3.322-1.472 5.838-1.907 7.547-1.304 1.705.561 2.683 2.275 2.936 5.141.291 3.31-.437 6.648-2.183 10.015-1.747 3.368-4.133 6.282-7.157 8.745l.597 6.781-2.688 1.884z" fill="#F5F7FA"/></svg>
